X: 608
P: Longways for &c.
M: 6/8
L: 1/8
K: A
V: 1
|:\
|:\
d2c B2A | G2F E3 | A2E B2E | d2c B3 |\
d2c B2A | G2F E3 | A2E Bcd | cdB A3 :|
V: 2 clef=bass middle=d
|:\
a3- a2d | A2B cBA | a3 g3 | a2e A3 |\
a3- a2d | A2c cBA | c3 d3 | e3  A3 :|
|:\
b2a g2f | e2d c2B | A2a g2a | b2a g2a |\
b2a g2a | e2d c2B | A3  d3  | e3  A3 :|

